icons/1_Primary/WHM.svg

<svg width="1024" height="1024" viewBox="0 0 1024 1024" fill="none" xmlns="http://www.w3.org/2000/svg">
<g clip-path="url(#clip0_2_3927)">
<path d="M512 1024C794.77 1024 1024 794.77 1024 512C1024 229.23 794.77 0 512 0C229.23 0 0 229.23 0 512C0 794.77 229.23 1024 512 1024Z" fill="#F8C18C"/>
<path d="M455.349 431.36L422.359 553.7C420.425 560.912 417.332 567.762 413.199 573.98C409.189 580.04 404.199 585.38 398.419 589.79C392.623 594.18 386.166 597.62 379.289 599.98C372.217 602.43 364.783 603.67 357.299 603.65H176.539L222.589 430.68C223.309 427.7 225.049 425.06 227.519 423.23C229.979 421.34 233.009 420.33 236.109 420.37H260.619C261.975 420.338 263.319 420.634 264.536 421.233C265.753 421.832 266.808 422.716 267.609 423.81C268.463 424.849 269.049 426.082 269.315 427.4C269.582 428.718 269.522 430.081 269.139 431.37L234.969 558.75H281.479L315.839 430.68C316.559 427.7 318.299 425.06 320.769 423.23C323.159 421.37 326.099 420.36 329.129 420.37H353.869C356.589 420.28 359.179 421.57 360.739 423.81C361.552 424.871 362.101 426.11 362.339 427.425C362.577 428.739 362.498 430.092 362.109 431.37L327.969 558.75H355.919C361.259 558.8 366.459 557.07 370.699 553.82C374.979 550.64 378.019 546.06 379.289 540.88L408.839 430.68C409.559 427.7 411.299 425.06 413.769 423.23C416.229 421.34 419.259 420.33 422.359 420.37H446.869C448.225 420.338 449.569 420.634 450.786 421.233C452.003 421.832 453.058 422.716 453.859 423.81C454.706 424.853 455.285 426.087 455.545 427.405C455.805 428.723 455.737 430.084 455.349 431.37V431.36ZM487.189 534.45L471.379 593.33C470.659 596.31 468.919 598.95 466.449 600.78C463.989 602.67 460.959 603.68 457.859 603.64H433.349C432.028 603.659 430.722 603.355 429.544 602.756C428.366 602.156 427.352 601.279 426.589 600.2C425.75 599.199 425.174 598.005 424.914 596.724C424.653 595.444 424.717 594.12 425.099 592.87L468.399 430.67C469.119 427.69 470.859 425.05 473.329 423.22C475.789 421.33 478.819 420.32 481.919 420.36H517.429L499.329 489.55H556.599L572.409 430.67C573.119 427.69 574.869 425.05 577.339 423.22C579.729 421.35 582.669 420.35 585.699 420.36H621.669L575.159 593.33C574.439 596.31 572.699 598.95 570.229 600.78C567.841 602.642 564.897 603.649 561.869 603.64H537.129C534.409 603.73 531.819 602.44 530.259 600.2C529.447 599.185 528.898 597.985 528.659 596.706C528.42 595.428 528.499 594.111 528.889 592.87L544.469 534.45H487.199H487.189ZM588.679 592.64L634.959 420.36H779.749C790.392 420.231 800.905 422.71 810.369 427.58C819.375 432.182 827.242 438.733 833.397 446.758C839.552 454.783 843.84 464.079 845.949 473.97C848.235 484.349 847.923 495.132 845.039 505.36L821.439 593.33C820.719 596.31 818.979 598.95 816.509 600.78C814.049 602.67 811.019 603.68 807.919 603.64H783.409C782.052 603.678 780.706 603.385 779.488 602.785C778.27 602.186 777.217 601.299 776.419 600.2C775.563 599.163 774.976 597.93 774.709 596.612C774.442 595.293 774.504 593.929 774.889 592.64L799.899 500.08C801.969 491.76 800.159 482.96 794.969 476.14C792.449 472.857 789.245 470.161 785.579 468.24C781.726 466.231 777.435 465.207 773.089 465.26H762.549L728.189 593.33C727.469 596.31 725.729 598.95 723.259 600.78C720.871 602.642 717.927 603.649 714.899 603.64H690.149C687.429 603.73 684.839 602.44 683.279 600.2C682.462 599.142 681.91 597.903 681.672 596.587C681.434 595.272 681.515 593.918 681.909 592.64L716.049 465.26H669.539L635.179 593.33C634.469 596.31 632.729 598.95 630.259 600.78C627.799 602.67 624.769 603.68 621.669 603.64H597.159C595.802 603.678 594.456 603.385 593.238 602.785C592.02 602.186 590.967 601.299 590.169 600.2C589.317 599.161 588.735 597.926 588.475 596.607C588.215 595.288 588.285 593.926 588.679 592.64Z" fill="white"/>
</g>
<defs>
<clipPath id="clip0_2_3927">
<rect width="1024" height="1024" fill="white"/>
</clipPath>
</defs>
</svg>

<svg xmlns="http://www.w3.org/2000/svg" width="1024" height="1024" fill="none">
   <g clip-path="url(#a)">
      <path fill="#F8C18C" d="M512 1024c282.77 0 512-229.23 512-512S794.77 0 512 0 0 229.23 0 512s229.23 512 512 512Z"/>
      <path fill="#fff" d="m455.349 431.36-32.99 122.34a68.851 68.851 0 0 1-9.16 20.28c-4.01 6.06-9 11.4-14.78 15.81a68.52 68.52 0 0 1-19.13 10.19 66.63 66.63 0 0 1-21.99 3.67h-180.76l46.05-172.97c.72-2.98 2.46-5.62 4.93-7.45 2.46-1.89 5.49-2.9 8.59-2.86h24.51a8.42 8.42 0 0 1 6.99 3.44 8.213 8.213 0 0 1 1.706 3.59 8.212 8.212 0 0 1-.176 3.97l-34.17 127.38h46.51l34.36-128.07c.72-2.98 2.46-5.62 4.93-7.45 2.39-1.86 5.33-2.87 8.36-2.86h24.74c2.72-.09 5.31 1.2 6.87 3.44a8.405 8.405 0 0 1 1.37 7.56l-34.14 127.38h27.95c5.34.05 10.54-1.68 14.78-4.93 4.28-3.18 7.32-7.76 8.59-12.94l29.55-110.2c.72-2.98 2.46-5.62 4.93-7.45 2.46-1.89 5.49-2.9 8.59-2.86h24.51a8.42 8.42 0 0 1 6.99 3.44 8.219 8.219 0 0 1 1.49 7.56v-.01Zm31.84 103.09-15.81 58.88c-.72 2.98-2.46 5.62-4.93 7.45-2.46 1.89-5.49 2.9-8.59 2.86h-24.51a8.138 8.138 0 0 1-6.76-3.44 7.837 7.837 0 0 1-1.49-7.33l43.3-162.2c.72-2.98 2.46-5.62 4.93-7.45 2.46-1.89 5.49-2.9 8.59-2.86h35.51l-18.1 69.19h57.27l15.81-58.88c.71-2.98 2.46-5.62 4.93-7.45 2.39-1.87 5.33-2.87 8.36-2.86h35.97l-46.51 172.97c-.72 2.98-2.46 5.62-4.93 7.45a13.53 13.53 0 0 1-8.36 2.86h-24.74c-2.72.09-5.31-1.2-6.87-3.44a7.93 7.93 0 0 1-1.37-7.33l15.58-58.42h-57.28Zm101.49 58.19 46.28-172.28h144.79a65.195 65.195 0 0 1 30.62 7.22 68.035 68.035 0 0 1 35.58 46.39 64.525 64.525 0 0 1-.91 31.39l-23.6 87.97c-.72 2.98-2.46 5.62-4.93 7.45-2.46 1.89-5.49 2.9-8.59 2.86h-24.51a8.344 8.344 0 0 1-6.99-3.44 8.192 8.192 0 0 1-1.53-7.56l25.01-92.56c2.07-8.32.26-17.12-4.93-23.94a28.533 28.533 0 0 0-9.39-7.9 26.32 26.32 0 0 0-12.49-2.98h-10.54l-34.36 128.07c-.72 2.98-2.46 5.62-4.93 7.45a13.53 13.53 0 0 1-8.36 2.86h-24.75c-2.72.09-5.31-1.2-6.87-3.44a8.341 8.341 0 0 1-1.37-7.56l34.14-127.38h-46.51l-34.36 128.07c-.71 2.98-2.45 5.62-4.92 7.45-2.46 1.89-5.49 2.9-8.59 2.86h-24.51a8.344 8.344 0 0 1-6.99-3.44 8.154 8.154 0 0 1-1.49-7.56Z"/>
   </g>
   <defs>
      <clipPath id="a">
         <path fill="#fff" d="M0 0h1024v1024H0z"/>
      </clipPath>
   </defs>
</svg>
